X:1
T:Title
%%score ( 1 2 ) { 3 | 4 }
L:1/8
Q:1/4=150
M:6/4
K:Ab
V:1 treble nm="Grand Piano, Soprano"
V:2 treble 
V:3 bass nm="Choir Pad, Wonderful Morning"
V:4 bass 
V:1
 [Ec]2 [=D_c]2 [E=c]2 [Fd]2 [FA]2 [=EB]2 | [Ec]6 [CA]6 | [DB]2 [C=A]2 [DB]2 [Ge]2 [Ge]2 [Fd]2 | %3
w: By~Carl~Harold~Lowden * * * * *|||
 [Ec]12 | [Ec]2 [=D_c]2 [E=c]2 [Fd]2 [FA]2 [=EB]2 | [Ec]6 [CA]6 | %6
w: |||
 [B,G]2 [EG]2 [GB]2 [F=d]2 [Ac]2 [Ad]2 | [Ge]12 | [Bd]2 [Gd]2 [Fd]2 [Ed]2 [Fd]2 [Gd]2 | .A6 z6 | %10
w: ||||
 [Bd]2 [Gd]2 [Fd]2 [Ec]2 [Fd]2 [DB]2 | [CA]12 | [CA]2 [DB]2 [=D_c]2 [E=c]2 [Ac]2 [Ge]2 | %13
w: |||
 [Ge]6 [Fd]6 | [Ec]2 [Ec]2 [Ec]2 [Gd]2 [Fd]2 [Gd]2 | [Ac]12 | E2 [EG]2 [GB]2 [Gd]2 [Gc]2 [GB]2 | %17
w: ||||
 A6 [CE]6 | [CA]2 [CA]2 [CA]2 [=Dc]2 [DB]2 [DA]2 | [Ee]12 | [_Ge]2 [Gf]2 [Ge]2 [Fe]2 [Fd]2 [DF]2 | %21
w: ||||
 [Ec]2 [Fd]2 [Ec]2 [DB]6 | [_CA]2 [CG]2 [CF]2 [=CE]2 [Ae]4 | [Ge]2 [Ge]2 [EG]2 [EA]6- | [EA]6 z6 |] %25
w: ||||
V:2
 x12 | x12 | x12 | x12 | x12 | x12 | x12 | x12 | x12 | c2- [Cc-]2 [Fc]2 [Ec]6 | x12 | x12 | x12 | %13
 x12 | x12 | x12 | x12 | x12 | x12 | x12 | x12 | x12 | x12 | x12 | x12 |] %25
V:3
 A,6 A,6 | A,6 z6 | G,6 E,6 | A,2 E,2 C,2 .A,6 | A,6 A,6 | A,6 z6 | E,6 B,6 | .B,6 .B,6 | G,6 G,6 | %9
 A,6 A,6 | G,6 G,6 | A,12 | A,6 A,6 | A,6 A,6 | A,6 B,6 | A,12 | G,2 B,2[K:treble] D2 F2 E2 D2 | %17
 C6[K:bass] A,6 | A,2 A,2 A,2 A,2 B,2 B,2 | G,4 A,2 B,2[K:treble] C2 D2 | %20
 C2 C2 C2[K:bass] A,2 A,2 A,2 | =A,2 A,2 A,2 F,6 | F,2 G,2 A,2 A,2[K:treble] C4 | D2 D2 D2 C6- | %24
 C6 z6 |] %25
V:4
 A,,6 D,6 | A,,2 C,2 E,2 A,6 | E,6 z6 | z6 .A,,6 | A,,6 D,6 | A,,2 C,2 E,2 A,6 | B,,6 B,,6 | %7
 E,2 G,2 B,2 .E,6 | E,6 E,6 | A,,6 A,,6 | E,6 E,6 | A,,12 | A,,6 A,,6 | D,6 D,6 | E,6 E,6 | A,,12 | %16
 E,2 E,2 E,2 E,2 E,2 E,2 | A,6 A,,6 | F,2 F,2 F,2 B,,2 B,,2 B,,2 | E,4 F,2 G,2 A,2 B,2 | %20
 A,2 A,2 A,2 D,2 D,2 D,2 | F,2 F,2 F,2 B,,6 | =D,2 D,2 D,2 .E,6 | E,2 E,2 E,2 A,,6- | A,,6 z6 |] %25

